X:1
T:O Voice, 76.76 D
T:O Voice, 76.76 D
T:Joseph Barnby, 1889
T:Public Domain Courtesy of the Cyber Hymnal™
C:Joseph Barnby, 1889
Z:Public Domain
Z:Courtesy of the Cyber Hymnal™
%%score ( 1 2 ) ( 3 4 )
L:1/8
Q:1/4=115
M:4/4
K:D
V:1 treble 
V:2 treble 
V:3 bass 
V:4 bass 
V:1
 [DA]2 | [DB]2 [DA]2 [DG]2 [DF]2 | [DF]4 E2 [DB]2 | [CA]2 [CE]2 [CF]2 [CG]2 | [DF]6 [DF]2 | %5
 [DA]3 [DA] [DG]2 [B,G]2 | =c4 [=DB]2 [^DB]2 | [Ee]2 [^Gd]2 [Gc]2 [GB]2 | A6 A2 | %9
 [EA]3 [EA] [EB]2 [Ec]2 | [Ec]4 [Dd]2 [DA]2 | [DF]2 [DF]2 [DG]2 [DA]2 | [DB]6 [DB]2 | %13
 [Ec]2 [CA]2 [Dd]2 [DA]2 | G4 [DF]2 [=CA]2 | [B,G]2 (FE) [A,D]2 [CE]2 | D6 |] %17
V:2
 x2 | x8 | x4 E2 x2 | x8 | x8 | x8 | (E2 ^D2) x4 | x8 | A6 A2 | x8 | x8 | x8 | x8 | x8 | %14
 (D2 =C2) x4 | x2 B,2 x4 | D6 |] %17
V:3
 [D,F,]2 | [D,G,]2 [D,F,]2 [B,,G,]2 [A,,A,]2 | [G,,B,]4 [G,,B,]2 [G,,E,]2 | %3
 [A,,E,]2 [A,,G,]2 [A,,F,]2 [A,,E,]2 | [D,F,]6 [D,A,]2 | [=C,F,]3 [C,F,] [B,,G,]2 [E,G,]2 | %6
 ([A,,G,]2 [D,F,]2) G,2 [F,A,]2 | [E,^G,]2 [E,B,]2 [E,E]2 [E,D]2 | [A,C]6 A,2 | %9
 [G,C]3 [G,C] [G,B,]2 [G,A,]2 | [G,A,]4 [F,A,]2 F,2 | [D,A,]2 [D,D]2 [E,D]2 [F,=C]2 | %12
 [G,B,]6 [G,B,]2 | [G,A,]2 [G,A,]2 [F,A,]2 [F,A,]2 | ([E,B,]2 A,2) [D,A,]2 [F,,D,]2 | %15
 [G,,D,]2 [G,,G,]2 [A,,F,]2 [A,,G,]2 | [D,F,]6 |] %17
V:4
 x2 | x8 | x8 | x8 | x8 | x8 | x4 G,2 x2 | x8 | x6 A,2 | x8 | x6 F,2 | x8 | x8 | x8 | x2 A,2 x4 | %15
 x8 | x6 |] %17

